X:5746
T:Gan Ainm
R:Jig
S:
H:
N:
D:concertina recital Milltown 1992
Z:Adrian Scahill
M:6/8
L:1/8
K:D
ABA DED|AGF AB=c|BGG dGG|BAG BdB|\
ABA DED|AGF AB=c|def gfe|fed BdB:||\
Add fd/2c/2d|ed/2c/2d fd/2c/2d|Add fd/2c/2d|edB BAF|\
Add fd/2c/2d|ed/2c/2d efg|faf gfe|fed BdB:||
